build/img/Porziuncola/Heart-Main.svg

<svg width="110" height="87" viewBox="0 0 110 87" fill="none" xmlns="http://www.w3.org/2000/svg">
<path d="M47.5416 7.33194C51.6511 11.256 53.7059 13.218 54.3381 13.4308C55.3654 13.7766 55.1751 13.7751 56.2077 13.4454C56.8431 13.2425 58.8628 11.3736 62.9023 7.63576C67.5136 3.36874 74.085 0 82.7619 0C101.095 0 110 18.8571 110 27.2381C110 43 104.45 49.5 80.7339 65.5C65.1049 76.0443 59.9618 82.8108 56.9838 85.8785C56.778 86.0905 56.675 86.1965 56.025 86.4317C55.6301 86.5747 54.4926 86.5966 54.0925 86.469C53.4338 86.2589 53.2951 86.1265 53.0175 85.8618C50.1647 83.1411 44.8029 77.394 30.2752 66.5C16.1468 55.9054 0 51 0 27.2381C0 9.95238 15.7143 0 25.6667 0C36.5187 0 43.2246 3.20992 47.5416 7.33194Z" fill="url(#paint0_radial)"/>
<defs>
<radialGradient id="paint0_radial" cx="0" cy="0" r="1" gradientUnits="userSpaceOnUse" gradientTransform="translate(54.7587 43.4762) rotate(-18.3528) scale(53.2347 64.9221)">
<stop stop-color="#F5072B"/>
<stop offset="1" stop-color="#C6001C"/>
</radialGradient>
</defs>
</svg>

<svg width="110" height="87" fill="none" xmlns="http://www.w3.org/2000/svg"><path d="M47.542 7.332c4.11 3.924 6.164 5.886 6.796 6.099 1.027.346.837.344 1.87.014.635-.203 2.655-2.071 6.694-5.81C67.514 3.37 74.085 0 82.762 0 101.095 0 110 18.857 110 27.238 110 43 104.45 49.5 80.734 65.5c-15.63 10.544-20.772 17.31-23.75 20.379-.206.212-.309.317-.959.553-.395.143-1.532.165-1.932.037-.66-.21-.798-.343-1.076-.607-2.852-2.72-8.214-8.468-22.742-19.362C16.147 55.905 0 51 0 27.238 0 9.952 15.714 0 25.667 0c10.852 0 17.558 3.21 21.875 7.332z" fill="url(#paint0_radial)"/><defs><radialGradient id="paint0_radial" cx="0" cy="0" r="1" gradientUnits="userSpaceOnUse" gradientTransform="matrix(50.52696 -16.76186 20.44184 61.61988 54.759 43.476)"><stop stop-color="#F5072B"/><stop offset="1" stop-color="#C6001C"/></radialGradient></defs></svg>
